X: 10030
T: FAREWELL TO THE HOLLER
C: Bob McQuillen 9 April 93
B: Bob's Note Book 10 #30
%R: jig
Z: 2021 John Chambers <jc:trillian.mit.edu>
M: 6/8
L: 1/8
K: A
cB \
| AcB AEC | DEF E2E | AcB AGA | Bdc BGE |\
| AcB AEC | DEF GAB | cAc dBG | BAA A :|
|: cd \
| eag a2c | def e2c | def ecA | GAB Bcd |\
| eaf ecA | def ecA | Edc Bed | cAA A :|
%%begintext align
%% Besides the fact
%% that he's a nice guy, anybody who ever danced with
%% Ed Ouimette should have a pretty good idea why
%% I wrote him this tune - Best wishes always to you,
%% Ed!
%%endtext

%%sep 1 1 500

%%sep 1 1 500

